projects/front-end-library/src/lib/components/logo/svg/logo-videotron-business-small-fr.svg

<svg width="109" height="24" viewBox="0 0 109 24" fill="none" xmlns="http://www.w3.org/2000/svg">
    <path d="M24 0H0V24H24V0Z" class="fill-brand"/>
    <path d="M6.48319 6.15918L18.0934 11.9325L6.46924 17.8399L13.9459 11.9503L6.48319 6.15918Z" fill="#050504"/>
    <path d="M34.2193 8.77417L32.1461 2.25342H30.5679L33.3443 10.6769H35.075L37.8638 2.25342H36.3023L34.2193 8.77417Z" fill="currentColor"/>
    <path d="M56.5067 0H54.8924L53.8246 1.37848H55.1739L56.5067 0Z" fill="currentColor"/>
    <path d="M57.329 9.26787H53.5084V7.20292H57.0586V5.78699H53.5084V3.66241H57.329V2.25342H52.0287V10.6769H57.329V9.26787Z" fill="currentColor"/>
    <path d="M48.448 10.4245C48.8476 10.155 49.2003 9.82189 49.4923 9.43845C49.6419 9.19812 49.7158 8.91836 49.7045 8.63549V4.3253C49.7185 4.04059 49.6402 3.75895 49.4812 3.52234C49.3106 3.28104 48.7767 2.67639 48.4647 2.49472C48.2039 2.33844 47.906 2.2551 47.6021 2.25342H43.7454V10.6783H47.6021C47.9007 10.6647 48.1913 10.5775 48.448 10.4245V10.4245ZM45.2251 9.26787V3.66241H47.462C47.5054 3.65942 47.549 3.66364 47.591 3.67489C47.8445 3.8313 48.0578 4.04505 48.2136 4.29895C48.2209 4.32184 48.2246 4.34568 48.2247 4.36968V8.61191C48.2247 8.77417 47.8018 9.14445 47.6021 9.25678C47.5719 9.26532 47.5405 9.26906 47.5091 9.26787H45.2251Z" fill="currentColor"/>
    <path d="M41.152 2.25342H39.6722V10.6824H41.152V2.25342Z" fill="currentColor"/>
    <path d="M96.4411 2.25342V7.91851L93.5468 2.25342H91.9562V10.6769H93.4345V5.0825L96.3523 10.6769H97.9194V2.25342H96.4411Z" fill="currentColor"/>
    <path d="M81.5954 10.6783L79.9215 7.24314C80.0528 7.19615 80.1759 7.12876 80.2862 7.04344C80.5674 6.8243 80.8232 6.57452 81.049 6.29872C81.2186 6.04283 81.307 5.74171 81.3028 5.43475V4.19772C81.3041 3.89289 81.2158 3.59439 81.049 3.33929C80.8253 3.05289 80.5694 2.79323 80.2862 2.56545C79.9916 2.36504 79.6441 2.25646 79.2877 2.25342H75.327V10.6783H76.8054V7.34992H78.4252L79.9922 10.6783H81.5954ZM79.8231 5.42365C79.8218 5.44423 79.8156 5.4642 79.805 5.4819C79.6941 5.67605 79.4126 5.94648 79.2877 5.94648H76.8054V3.66241H79.3585C79.4972 3.67489 79.7232 3.95503 79.805 4.11451C79.8178 4.14428 79.8239 4.17645 79.8231 4.20881V5.42365Z" fill="currentColor"/>
    <path d="M88.478 2.44771C88.2133 2.2899 87.9124 2.20297 87.6043 2.19531H85.4576C85.1493 2.20202 84.8482 2.28902 84.5839 2.44771C84.2899 2.61829 83.7254 3.22155 83.5563 3.46424C83.4018 3.70293 83.3239 3.98306 83.333 4.2672V8.68139C83.3245 8.96373 83.4024 9.24194 83.5563 9.4788C83.7254 9.7215 84.2899 10.3303 84.5839 10.4953C84.8477 10.6559 85.1488 10.7448 85.4576 10.7533H87.6002C87.9087 10.7435 88.2095 10.6547 88.4739 10.4953C88.7679 10.3303 89.3198 9.7215 89.5015 9.4788C89.6551 9.24177 89.7335 8.96378 89.7261 8.68139V4.2672C89.7337 3.98391 89.6554 3.70498 89.5015 3.46701C89.3198 3.22155 88.7679 2.61829 88.478 2.44771ZM88.2561 8.66475C88.2551 8.68538 88.2489 8.70542 88.2381 8.723C88.0731 8.96178 87.8641 9.16697 87.6224 9.32764C87.5995 9.33486 87.5756 9.3386 87.5516 9.33874H85.5158C85.4917 9.33973 85.4677 9.33596 85.4451 9.32764C85.2002 9.16891 84.9891 8.96344 84.8238 8.723C84.8155 8.70472 84.8112 8.68484 84.8113 8.66475V4.30741C84.8115 4.28376 84.8157 4.26032 84.8238 4.23807C84.9893 3.99433 85.2002 3.78479 85.4451 3.62095C85.4576 3.60431 85.5158 3.60431 85.5158 3.60431H87.5475C87.5721 3.60347 87.5965 3.60921 87.6182 3.62095C87.86 3.78659 88.0688 3.99588 88.2339 4.23807C88.252 4.2561 88.252 4.30741 88.252 4.30741L88.2561 8.66475Z" fill="currentColor"/>
    <path d="M73.3244 2.25342H67.278V3.66241H69.562V10.6824H71.0403V3.66241H73.3244V2.25342Z" fill="currentColor"/>
    <path d="M65.6887 9.4788C65.8388 9.24032 65.9159 8.96315 65.9105 8.68139V4.2672C65.9168 3.9836 65.8396 3.70441 65.6887 3.46424C65.5056 3.22155 64.9537 2.61829 64.6541 2.44771C64.3929 2.29233 64.0967 2.20551 63.7929 2.19531H61.6434C61.3346 2.2014 61.0328 2.28843 60.7683 2.44771C60.4646 2.61829 59.9098 3.22155 59.742 3.46701C59.5857 3.70513 59.5054 3.98517 59.5118 4.26997V8.68139C59.5062 8.96436 59.5864 9.2424 59.742 9.4788C59.9057 9.7215 60.4701 10.3303 60.7683 10.4953C61.0324 10.6564 61.3341 10.7453 61.6434 10.7533H63.7929C64.0995 10.7426 64.3983 10.6538 64.661 10.4953C64.9537 10.3303 65.5056 9.7215 65.6887 9.4788ZM64.4308 8.66475C64.4303 8.68464 64.4265 8.70431 64.4197 8.723C64.2513 8.96268 64.0385 9.16792 63.7929 9.32764C63.77 9.33478 63.7462 9.33852 63.7222 9.33874H61.6961C61.6725 9.33925 61.649 9.3355 61.6267 9.32764C61.3825 9.16905 61.1723 8.96352 61.0082 8.723C60.9971 8.70563 60.9913 8.68538 60.9916 8.66475V4.30741C60.9919 4.28335 60.9976 4.25967 61.0082 4.23807C61.1724 3.99421 61.3825 3.78461 61.6267 3.62095C61.6434 3.60431 61.6961 3.60431 61.6961 3.60431H63.7277C63.7524 3.60347 63.7768 3.60921 63.7984 3.62095C64.0421 3.7863 64.2527 3.99558 64.4197 4.23807C64.4276 4.26033 64.4313 4.28382 64.4308 4.30741V8.66475Z" fill="currentColor"/>
    <path d="M46.1875 21.759H47.039V17.9508H50.8305V17.134H47.039V14.1468H51.0358V13.3245H46.1875V21.759Z" fill="currentColor"/>
    <path d="M39.1147 21.759H39.9649V17.9508H43.7522V17.134H39.9649V14.1468H43.963V13.3245H39.1147V21.759Z" fill="currentColor"/>
    <path d="M34.6299 13.3245H33.3443L30.5277 21.7299V21.759H31.418L32.0643 19.8105H35.9182L36.5409 21.7424V21.759H37.4506L34.6354 13.3369L34.6299 13.3245ZM34.0599 14.1649L35.6519 18.9896H32.3236L33.9018 14.1649H34.0599Z" fill="currentColor"/>
    <path d="M84.3592 17.6624L80.5385 16.6001C80.4139 16.555 80.3066 16.4718 80.2319 16.3622C80.1572 16.2527 80.119 16.1224 80.1225 15.9899V15.1162C80.1257 15.0559 80.1438 14.9973 80.1752 14.9457C80.3951 14.6117 80.6907 14.3342 81.0378 14.1358C81.0906 14.1093 81.1494 14.0974 81.2084 14.1011H83.1804C83.2395 14.0977 83.2983 14.1117 83.3496 14.1413C83.6952 14.364 83.9847 14.6635 84.1955 15.0164C84.2322 15.0721 84.2638 15.1311 84.2898 15.1925L84.3009 15.2105L85.133 14.9637H85.1566L85.1441 14.9457C85.0536 14.7516 84.9459 14.5659 84.8224 14.3909C84.6574 14.1746 84.2677 13.6975 83.9473 13.5048C83.7287 13.3716 83.4804 13.2949 83.2248 13.2815H81.1446C80.8887 13.2933 80.64 13.3701 80.422 13.5048C80.0528 13.7851 79.7258 14.1172 79.4513 14.4908C79.3277 14.7002 79.2683 14.9413 79.2807 15.1842V16.0468C79.2807 16.6861 79.6385 17.238 80.1613 17.385L83.9931 18.4349C84.2704 18.5056 84.4285 18.8107 84.4285 19.07V19.97C84.4274 20.0293 84.4132 20.0875 84.3869 20.1406C84.1603 20.4787 83.862 20.7628 83.5132 20.9727C83.464 20.9978 83.409 21.0098 83.3538 21.0074H81.1349C81.0706 21.0104 81.0065 20.9986 80.9477 20.9727C80.6066 20.7422 80.3183 20.4421 80.1017 20.0921C80.0617 20.045 80.0298 19.9916 80.0074 19.934V19.916L79.1906 20.1462H79.167L79.1795 20.1697C79.2654 20.3612 79.3699 20.5437 79.4915 20.7148C79.6496 20.9325 80.0462 21.4012 80.3596 21.6023C80.5837 21.7374 80.8375 21.8155 81.0988 21.8298H83.4245C83.6805 21.8174 83.9289 21.7391 84.1456 21.6023C84.5162 21.3294 84.8434 21.0021 85.1164 20.6316C85.2438 20.4235 85.3056 20.1819 85.2939 19.9382V18.9882C85.2703 18.3544 84.8945 17.815 84.3592 17.6624Z" fill="currentColor"/>
    <path d="M72.1262 21.759H76.9745V20.9325H72.9777V17.9508H76.7651V17.134H72.9777V14.1468H76.9745V13.3245H72.1262V21.759Z" fill="currentColor"/>
    <path d="M68.705 17.7804C68.9699 17.5625 69.2103 17.3165 69.422 17.0468C69.5663 16.8296 69.6417 16.5739 69.6383 16.3131V15.0789C69.6408 14.8165 69.5655 14.5593 69.422 14.3397C69.2092 14.0663 68.9689 13.8153 68.705 13.5908C68.4612 13.413 68.1678 13.3161 67.866 13.3135H64.0703V21.7591H64.9218V18.0494H66.9881L69.0489 21.748V21.7591H70.0197L67.9298 18.0494C68.2104 18.0452 68.4822 17.9509 68.705 17.7804ZM64.9246 14.1456H67.8535C67.9322 14.1374 68.0116 14.1518 68.0823 14.1872C68.3589 14.362 68.5902 14.5995 68.7577 14.8806C68.7842 14.9561 68.7937 15.0367 68.7854 15.1163V16.2896C68.7923 16.367 68.7824 16.4451 68.7563 16.5184C68.587 16.7902 68.3555 17.0179 68.081 17.1827C68.0108 17.2205 67.9317 17.2387 67.8521 17.2354H64.9246V14.1456Z" fill="currentColor"/>
    <path d="M61.5561 13.3245H60.7046V21.759H61.5561V13.3245Z" fill="currentColor"/>
    <path d="M56.2196 13.3245H54.9341L52.1161 21.7299V21.759H53.0078L53.6541 19.8105H57.5108L58.139 21.7424V21.759H59.0487L56.2252 13.3369L56.2196 13.3245ZM55.6497 14.1649L57.2417 18.9896H53.9134L55.4916 14.1649H55.6497Z" fill="currentColor"/>
</svg>

<svg width="109" height="24" fill="none" xmlns="http://www.w3.org/2000/svg"><path d="M24 0H0v24h24V0Z" class="fill-brand"/><path d="m6.483 6.16 11.61 5.772L6.47 17.84l7.477-5.89-7.463-5.79Z" fill="#050504"/><path d="m34.22 8.774-2.074-6.52h-1.578l2.776 8.423h1.731l2.789-8.424h-1.562L34.22 8.774ZM56.507 0h-1.615l-1.067 1.378h1.349L56.507 0ZM57.329 9.268h-3.82V7.203h3.55V5.787h-3.55V3.662h3.82V2.253h-5.3v8.424h5.3v-1.41ZM48.448 10.425c.4-.27.752-.603 1.044-.987.15-.24.224-.52.213-.803v-4.31a1.323 1.323 0 0 0-.224-.803c-.17-.241-.704-.846-1.016-1.027a1.696 1.696 0 0 0-.863-.242h-3.857v8.425h3.857c.299-.013.59-.1.846-.254Zm-3.223-1.157V3.662h2.237a.394.394 0 0 1 .129.013c.253.156.467.37.623.624a.236.236 0 0 1 .01.07v4.243c0 .162-.422.532-.622.645a.3.3 0 0 1-.093.01h-2.284ZM41.152 2.253h-1.48v8.43h1.48v-8.43ZM96.441 2.253V7.92l-2.894-5.666h-1.59v8.424h1.478V5.082l2.917 5.595h1.567V2.253h-1.478ZM81.595 10.678l-1.674-3.435c.132-.047.255-.114.365-.2.281-.219.537-.468.763-.744.17-.256.258-.557.254-.864V4.198a1.557 1.557 0 0 0-.254-.859 4.728 4.728 0 0 0-.763-.774 1.803 1.803 0 0 0-.998-.312h-3.961v8.425h1.478V7.35h1.62l1.567 3.328h1.603Zm-1.772-5.254a.13.13 0 0 1-.018.058c-.11.194-.392.464-.517.464h-2.483V3.662h2.553c.14.013.365.293.447.453.013.03.019.061.018.094v1.215ZM88.478 2.448a1.793 1.793 0 0 0-.874-.253h-2.146c-.309.007-.61.094-.874.253-.294.17-.859.774-1.028 1.016a1.395 1.395 0 0 0-.223.803v4.414c-.008.283.07.56.223.798.17.243.734.851 1.028 1.016.264.16.565.25.874.258H87.6c.309-.01.61-.098.874-.258.294-.165.846-.773 1.027-1.016.154-.237.233-.515.225-.798V4.267a1.404 1.404 0 0 0-.225-.8c-.181-.245-.733-.849-1.023-1.02Zm-.222 6.217a.123.123 0 0 1-.018.058 2.288 2.288 0 0 1-.616.605.24.24 0 0 1-.07.01h-2.036a.183.183 0 0 1-.07-.01 2.218 2.218 0 0 1-.622-.605.14.14 0 0 1-.013-.058V4.307c0-.023.005-.047.013-.069a2.29 2.29 0 0 1 .621-.617c.013-.017.07-.017.07-.017h2.032c.025 0 .05.005.071.017.242.166.45.375.616.617.018.018.018.07.018.07l.004 4.357ZM73.324 2.253h-6.046v1.41h2.284v7.02h1.478v-7.02h2.284v-1.41ZM65.689 9.479c.15-.239.227-.516.222-.798V4.267a1.449 1.449 0 0 0-.222-.803c-.183-.242-.735-.846-1.035-1.016a1.803 1.803 0 0 0-.861-.253h-2.15c-.308.006-.61.093-.875.253-.303.17-.858.774-1.026 1.019a1.406 1.406 0 0 0-.23.803v4.411a1.4 1.4 0 0 0 .23.798c.164.243.728.851 1.026 1.016.264.161.566.25.875.258h2.15c.307-.01.605-.1.868-.258.293-.165.845-.773 1.028-1.016Zm-1.258-.814c0 .02-.004.04-.011.058-.169.24-.382.445-.627.605a.245.245 0 0 1-.07.01h-2.027a.196.196 0 0 1-.07-.01 2.198 2.198 0 0 1-.618-.605.105.105 0 0 1-.016-.058V4.307c0-.024.006-.047.016-.069.164-.244.374-.453.619-.617.016-.017.07-.017.07-.017h2.03c.025 0 .05.005.071.017.244.165.455.375.622.617a.195.195 0 0 1 .01.07v4.357ZM46.188 21.759h.851v-3.808h3.791v-.817H47.04v-2.987h3.997v-.822h-4.849v8.434ZM39.115 21.759h.85v-3.808h3.787v-.817h-3.787v-2.987h3.998v-.822h-4.848v8.434ZM34.63 13.325h-1.286l-2.816 8.405v.029h.89l.646-1.948h3.854l.623 1.931v.017h.91l-2.816-8.422-.005-.012Zm-.57.84 1.592 4.825h-3.328l1.578-4.825h.158ZM84.36 17.662 80.537 16.6a.63.63 0 0 1-.415-.61v-.874a.365.365 0 0 1 .052-.17c.22-.334.516-.612.863-.81a.333.333 0 0 1 .17-.035h1.972c.06-.003.118.01.17.04a2.67 2.67 0 0 1 .94 1.052l.01.018.833-.247h.024l-.013-.018a3.603 3.603 0 0 0-.322-.555c-.165-.216-.554-.694-.875-.886a1.544 1.544 0 0 0-.722-.224h-2.08a1.507 1.507 0 0 0-.723.224c-.37.28-.696.612-.97.986a1.24 1.24 0 0 0-.171.693v.863c0 .64.357 1.191.88 1.338l3.832 1.05c.277.07.436.376.436.635v.9a.4.4 0 0 1-.042.17 2.773 2.773 0 0 1-.874.833.32.32 0 0 1-.16.034h-2.218a.416.416 0 0 1-.187-.034c-.341-.23-.63-.53-.846-.88a.555.555 0 0 1-.095-.159v-.018l-.816.23h-.024l.013.024c.085.191.19.374.311.545.159.218.555.686.869.887.224.135.478.213.739.228h2.325c.256-.013.505-.09.722-.228.37-.273.697-.6.97-.97.128-.209.19-.45.178-.694v-.95c-.024-.634-.4-1.173-.935-1.326ZM72.126 21.759h4.849v-.826h-3.997V17.95h3.787v-.817h-3.787v-2.987h3.997v-.822h-4.849v8.434ZM68.705 17.78c.265-.218.505-.463.717-.733.144-.217.22-.473.216-.734V15.08a1.328 1.328 0 0 0-.216-.74 5.08 5.08 0 0 0-.717-.748 1.445 1.445 0 0 0-.839-.277H64.07v8.445h.852v-3.71h2.066l2.06 3.699v.011h.972l-2.09-3.71c.28-.004.552-.098.775-.269Zm-3.78-3.634h2.928a.415.415 0 0 1 .23.041c.276.175.507.413.675.694a.542.542 0 0 1 .027.235v1.174a.54.54 0 0 1-.029.228c-.169.272-.4.5-.675.665a.444.444 0 0 1-.229.052h-2.927v-3.09ZM61.556 13.325h-.851v8.434h.851v-8.434ZM56.22 13.325h-1.286l-2.818 8.405v.029h.892l.646-1.948h3.857l.628 1.931v.017h.91l-2.824-8.422-.005-.012Zm-.57.84 1.592 4.825h-3.329l1.579-4.825h.158Z" fill="currentColor"/></svg>
